assets/platform_icons/telegram_platform_icon.svg

<svg width="44" height="45" viewBox="0 0 44 45" fill="none" xmlns="http://www.w3.org/2000/svg">
<path d="M31.9816 13.976C31.815 13.976 31.637 14.0164 31.4589 14.0972L12.02 21.627C10.6931 22.1694 10.7103 22.9079 11.7845 23.2311L16.7764 24.8005L16.7878 24.7947L16.8051 24.8005L18.5111 30.4608C18.7467 31.084 18.626 31.3379 19.2866 31.3379C19.7921 31.3379 20.0104 31.1013 20.2976 30.8301C20.4757 30.657 21.5097 29.6473 22.6758 28.5106C22.693 28.4933 22.7045 28.4817 22.7045 28.4817L27.7193 32.1976C28.0697 32.388 28.3799 32.4688 28.6499 32.4399C29.1095 32.4053 29.4426 32.0476 29.5977 31.3379L32.9122 15.6666C33.1879 14.5472 32.6652 13.9414 31.9816 13.976Z" fill="black"/>
<path d="M37.1634 36.6528C36.5603 36.8317 36.2271 37.5068 35.9399 38.0261C35.6814 38.4992 35.1816 39.0531 35.1816 39.607C35.1816 39.7859 35.3655 39.9301 35.5378 39.8782C36.072 39.7282 36.4684 39.0993 36.8532 38.7242C37.2783 38.3088 37.847 37.801 37.8585 37.1779C37.87 36.8317 37.5024 36.5547 37.1634 36.6528Z" fill="black"/>
<path d="M43.6078 24.5356C46.2157 13.9535 35.3302 3.25019 25.427 1.36918C19.9813 0.336354 14.3174 1.31725 9.67598 4.35802C5.68941 6.96605 1.61092 11.5993 1.10542 16.5038C1.09393 16.6135 1.12841 16.7 1.17437 16.775C-1.96779 24.8703 1.45583 35.0485 8.34329 40.1896C15.1733 45.2845 26.4035 47.0674 33.6643 41.7475C34.279 41.2974 33.7677 40.4031 33.0669 40.7319C32.8027 40.8531 32.5384 40.9743 32.2799 41.0955C32.1478 40.8647 31.8721 40.7146 31.5274 40.882C26.6907 43.1842 19.9756 42.0186 15.1963 40.3107C14.6563 40.1203 14.2887 40.98 14.8057 41.2339C17.3504 42.4745 20.1192 43.2015 22.9569 43.3515C24.1402 43.415 25.3293 43.3746 26.5126 43.2476C24.7089 43.7035 22.8477 43.9112 20.843 43.7323C16.7702 43.3631 13.1743 41.8398 9.8081 39.5779C5.86174 36.9295 3.16765 33.7041 1.89241 29.0881C0.783752 25.0895 0.726294 20.8775 1.94984 16.9193C2.00154 16.8789 2.05324 16.8327 2.08196 16.7692C2.2945 16.3653 2.5013 15.9672 2.70809 15.5749C1.49604 18.7079 1.13989 22.1815 1.6856 25.4934C2.71384 31.7769 6.24086 35.9255 11.428 39.3356C12.0484 39.7453 12.6745 38.6951 12.0139 38.3432C7.40697 35.8909 3.75356 30.3114 2.97808 25.2107C2.12217 19.5792 4.16141 14.2939 7.49887 9.81065C7.78608 9.42984 7.18293 9.00862 6.8555 9.31443C6.30979 9.82795 5.8043 10.3819 5.33326 10.9646C6.09726 9.81065 6.95315 8.7259 7.98139 7.71615C7.74587 8.11428 8.125 8.71436 8.59604 8.40855C9.80809 7.62961 10.9799 6.79873 12.2379 6.08326C13.1341 5.5755 14.0876 5.17159 15.0067 4.70422C15.1561 4.75038 15.3284 4.76193 15.5295 4.71C22.2044 3.00786 28.8506 3.74064 34.0492 8.63935C34.2502 8.82976 34.4972 8.74321 34.6236 8.57011C34.5777 8.81245 34.7098 9.10094 35.0315 9.10094C35.5944 9.10094 35.5944 8.22967 35.0315 8.22967C34.8706 8.22967 34.7615 8.29892 34.6926 8.40278C34.704 8.30469 34.6811 8.20084 34.5892 8.10275C32.8544 6.26212 30.6658 4.7273 28.2589 3.65408C35.29 6.23903 41.1377 12.5629 41.9821 19.8619C41.4594 17.5309 40.4886 15.2748 39.0697 13.238C38.7079 12.7245 37.9094 13.1688 38.2138 13.7342C40.1037 17.2078 40.9941 21.0044 41.1205 24.9395C41.2526 29.0477 39.6614 32.5559 37.4843 35.9429C37.2603 36.2891 37.7773 36.7103 38.0587 36.4218C38.1909 36.491 38.3517 36.491 38.4896 36.3641C41.6317 33.4214 43.9294 29.0131 43.6193 24.5991C43.6193 24.576 43.6078 24.5587 43.6078 24.5356Z" fill="black"/>
<path d="M13.0815 39.8486C12.9436 40.1717 13.1274 40.4948 13.4491 40.6044C13.6846 40.6852 13.8972 40.766 14.1442 40.8006C14.5693 40.8525 14.7301 40.2698 14.4716 40.0101C14.305 39.837 14.081 39.7159 13.8799 39.5831C13.5985 39.3927 13.2078 39.5601 13.0815 39.8486Z" fill="black"/>
</svg>

<svg xmlns="http://www.w3.org/2000/svg" fill="none" viewBox="0 0 44 45"><path fill="#000" d="m32 14-.5.1L12 21.6c-1.3.6-1.3 1.3-.2 1.6l5 1.6 1.7 5.7c.2.6.1.8.8.8.5 0 .7-.2 1-.5l2.4-2.3 5 3.7c.4.2.7.3 1 .2.4 0 .7-.4.9-1l3.3-15.7c.3-1.2-.2-1.8-1-1.7Zm5.2 22.7c-.6.1-1 .8-1.3 1.3-.2.5-.7 1-.7 1.6 0 .2.2.3.3.3.6-.2 1-.8 1.4-1.2.4-.4 1-.9 1-1.5 0-.4-.4-.6-.7-.5Z"/><path fill="#000" d="M43.6 24.5C46.2 14 35.3 3.3 25.4 1.4c-5.4-1-11 0-15.7 3-4 2.6-8 7.2-8.6 12.1v.3a21 21 0 0 0 7.2 23.4c6.9 5 18.1 6.9 25.4 1.5a.6.6 0 0 0-.6-1l-.8.4c-.2-.2-.4-.4-.8-.2-4.8 2.3-11.5 1.1-16.3-.6-.5-.2-1 .7-.4 1a21.1 21.1 0 0 0 11.7 2c-1.8.4-3.7.6-5.7.4-4-.3-7.6-1.9-11-4.1a18 18 0 0 1-8-10.5 21.6 21.6 0 0 1 .3-12.3l.6-1.2a19 19 0 0 0-1 9.9c1 6.3 4.5 10.4 9.7 13.8.6.4 1.3-.6.6-1a19 19 0 0 1-9-13c-.9-5.7 1.2-11 4.5-15.5.3-.4-.3-.8-.6-.5-.6.5-1.1 1-1.6 1.7C6.1 9.8 7 8.7 8 7.7c-.3.4.1 1 .6.7l3.6-2.3L15 4.7h.5C22.2 3 29 3.7 34 8.7c.3.1.5 0 .6-.1 0 .2.1.5.4.5.6 0 .6-.9 0-.9l-.3.2-.1-.3c-1.7-1.8-4-3.4-6.3-4.4 7 2.5 12.8 8.9 13.7 16.2-.5-2.4-1.5-4.6-3-6.7-.3-.5-1 0-.8.5a26 26 0 0 1 3 11.2 19 19 0 0 1-3.7 11c-.2.4.3.8.6.5h.4c3.1-3 5.4-7.4 5.1-11.8Z"/><path fill="#000" d="M13 39.8c0 .4.1.7.4.8l.7.2c.5 0 .6-.5.4-.8l-.6-.4c-.3-.2-.7 0-.8.2Z"/></svg>
